Papirus-Dark/16x16/actions/im-user-away.svg

<?xml version="1.0" encoding="UTF-8" standalone="no"?>
<svg
   xmlns:dc="http://purl.org/dc/elements/1.1/"
   xmlns:cc="http://creativecommons.org/ns#"
   xmlns:rdf="http://www.w3.org/1999/02/22-rdf-syntax-ns#"
   xmlns:svg="http://www.w3.org/2000/svg"
   xmlns="http://www.w3.org/2000/svg"
   height="16"
   width="16"
   viewBox="0 0 16 16"
   id="svg2"
   version="1.1">
  <metadata
     id="metadata20">
    <rdf:RDF>
      <cc:Work
         rdf:about="">
        <dc:format>image/svg+xml</dc:format>
        <dc:type
           rdf:resource="http://purl.org/dc/dcmitype/StillImage" />
        <dc:title></dc:title>
      </cc:Work>
    </rdf:RDF>
  </metadata>
  <defs
     id="defs18" />
  <path
     style="opacity:0.720000018;fill:#ffffff;fill-opacity:1"
     d="M 8,0 C 5.7908743,-5.5e-6 4.0000166,1.7908522 4,4 c 1.66e-5,2.2091478 1.7908743,4.000006 4,4 2.209126,6e-6 3.999983,-1.7908522 4,-4 C 11.999983,1.7908522 10.209126,-5.5e-6 8,0 Z M 8,8.987305 C 3.9720212,8.992105 0.5035081,12.003572 0,16 l 9.712891,0 C 8.678574,15.173381 8,13.917879 8,12.5 8,11.096525 8.66527,9.839825 9.681641,9.012696 8.943079,8.998161 8.187296,8.988709 8,8.987305 Z"
     id="path4150" />
  <path
     style="opacity:0.72;fill:#ffffff;fill-opacity:1"
     d="M 12.5,9 A 3.5,3.5 0 0 0 9,12.5 3.5,3.5 0 0 0 12.5,16 3.5,3.5 0 0 0 16,12.5 L 14.5,13.75 13,15 l 0,-2 -3,0 0,-1 3,0 0,-2 1.5,1.25 1.5,1.25 A 3.5,3.5 0 0 0 12.5,9 Z"
     id="circle12" />
</svg>

<?xml version="1.0" encoding="UTF-8" standalone="no"?>
<svg id="svg2" xmlns:rdf="http://www.w3.org/1999/02/22-rdf-syntax-ns#" xmlns="http://www.w3.org/2000/svg" height="16" width="16" version="1.1" xmlns:cc="http://creativecommons.org/ns#" viewBox="0 0 16 16" xmlns:dc="http://purl.org/dc/elements/1.1/">
 <metadata id="metadata20">
  <rdf:RDF>
   <cc:Work rdf:about="">
    <dc:format>image/svg+xml</dc:format>
    <dc:type rdf:resource="http://purl.org/dc/dcmitype/StillImage"/>
    <dc:title/>
   </cc:Work>
  </rdf:RDF>
 </metadata>
 <path id="path4150" opacity="1" fill="#d3dae3" d="m8 0c-2.2091-0.0000055-4 1.7909-4 4 0.0000166 2.2091 1.7909 4 4 4 2.2091 0.000006 4-1.7909 4-4s-1.791-4-4-4zm0 8.9873c-4.028 0.0048-7.4965 3.0167-8 7.0127h9.7129c-1.0343-0.827-1.7129-2.082-1.7129-3.5 0-1.403 0.6653-2.6602 1.6816-3.4873-0.7385-0.0145-1.4943-0.024-1.6816-0.0254z"/>
 <path id="circle12" opacity="1" fill="#d3dae3" d="m12.5 9a3.5 3.5 0 0 0 -3.5 3.5 3.5 3.5 0 0 0 3.5 3.5 3.5 3.5 0 0 0 3.5 -3.5l-1.5 1.25-1.5 1.25v-2h-3v-1h3v-2l1.5 1.25 1.5 1.25a3.5 3.5 0 0 0 -3.5 -3.5z"/>
</svg>
